X:1
T:March du Petre
M:3/4
L:1/8
Q:80
C:J.Pincet Arr Russ Spaulding
S:Retreat
K:HP
{g}A | \
{Gdc}d3/2e/2{g}f2{g}f3/2g/2 | \
{fg}f3/2e/2{g}f3{gf}g | \
{ag}a2{ef}e2a2 |
{f}ga{fg}f3{g}A | \
{Gdc}d3/2e/2{g}f2{g}f3/2g/2 | \
{fg}f3/2e/2{g}f3{gf}g |
{ag}a2{ef}e2a2 | \
{f}g3/2e/2|1 {Gdc}d2:|2
{Gdc}d4|]
{g}A2{ag}a4 | \
{fg}fd{g}A4 | \
{g}c3/2d/2{gef}e3a |
{f}ga{fg}f4 | \
{g}dA{ag}a4 | \
{fg}fd{g}A4 |
{ag}ae{A}e2a2 | \
{f}g3/2e/2{Gdc}d4 :|
